X:99
T:Reels simple chords 123
M:3/4
L:1/8
K:Em
D2 [G2G,2B,2D2]>A2 | B2 d2 [cD,F,A,]B | AG B2 GA | [B2A,2C2E2] A2 A2 | GA [B2D,2F,2A,2C2] A2 |
A2 D2 [G3G,3B,3D3] |A B2 d2 | [cG,B,D]B AG Bc | AB [G2E,2G,2B,2] E2 |
E2 DE [G2E,2G,2B,2] | E2 E2 D2 | [G2G,2B,2D2]>A2 B2 | d2 [cD,F,A,]B AG |
B2 GA [B2A,2C2E2] | A2 A2 GA | [B2D,2F,2A,2C2] A2 A2 | D2 [G2G,2B,2D2]>A2 |
B2 d2 [cG,B,D]B | AG Bc AB | [G2E,2G,2B,2] E2 E2 | DE [G2E,2G,2B,2] E2 |
E2 d2 [e2C,2E,2G,2] | eg d2 dB | [cD,F,A,]B AG B2 | GA [B2A,2C2E2] A2 |
A2 GA [B2D,2F,2A,2] | A2 A2 d2 | [e2C,2E,2G,2] eg d2 | dB [cD,F,A,]B AG |
Bc AB [G2E,2G,2B,2] | E2 E2 DE | [G2E,2G,2B,2] E2 E2 | d2 [e2C,2E,2G,2] eg |
d2 dB [cD,F,A,]B | AG B2 GA | [B2A,2C2E2] A2 A2 | GA [B2D,2F,2A,2] A2 |
A2 d2 [e2C,2E,2G,2] | eg d2 dB | [cD,F,A,]B AG Bc | AB [G2E,2G,2B,2] E2 |
E2 DE [G2E,2G,2B,2] | E2 E2 |


